X:6878
T:the Happy Meeting
O:england
R:Jig
M:6/8
A:Westmorland
N:P3 1/2
K:D
d2d d2f|afd ecA|B2B B2e|cAcd3|\
d2d d2f|afd ecA|Bcd efg|fa^g a3:|
|:e2g ecA|e2f ecA|dcd Bcd|egf e2g|\
fdf ecA|dcd AGF|GFG Egf|edc d3:|


